X: 7404
T: Clog De Pariseau
R: reel
M: 4/4
K: Gmajor
|:E2 FG E2FG|EFGA B4|efgf (3efe B2|efgf (3efe B2|
E2 FG E2FG|EFGE B4|efgf (3efe B2|e2 B2 e4:|
|:d2 ed BGG2|gGGg f2 e2|DEFG ABcd|eced BGGG|d2 ed BGG2|
gGGg f2 e2|1 DEFG ABcA|GgdB G4:|2 DEFG ABcF|GgdB G4||

